!!!SOCIAL_FUNCTION:	game songs
!!!PDT:	1943
!!!OTL: No_64_Slahal_Game_Song_(f).krn
!!!REG: British Columbia
**kern
*staff1
=1-
=
*clefF4
*k[f#c#]
*M2/4
4..e\
16d\
=2
16e\LK
8d\
16B\Jk
8A\L
16A\Jk
16r
=3
16f#\LK
8e\
16d\Jk
8d\L
16.d\L
32A\JJk
=4
8A\L
16.A\L
32E\JJk
[8E\L
16E\Jk]
16r
=5
8E\L
8E\J
8E\L
16E\Jk
16r
=6
8E\L
16.E\L
32D\JJk
8D\L
16D\Jk
16r
=7
8E\L
16.E\L
32A\JJk
8A\L
16A\Jk
16r
=8
8A\L
16.A\L
32E\JJk
8E\L
16E\Jk
16r
=9
8E\L
8E\J
8E\L
16E\Jk
16r
=10
8E\L
16.E\L
32D\JJk
8D\L
16D\Jk
16r
==:|!
*-
